X:1
T:Title
%%score { ( 1 3 4 ) | ( 2 5 ) }
L:1/8
M:6/8
K:Bb
V:1 treble nm="Grand Piano"
V:3 treble 
V:4 treble 
V:2 bass 
V:5 bass 
V:1
 z3 z2[Q:1/4=81] [DF] | [DF][EG][DF] [DB][Fd][FB] | [GB][FA][EG] [DF]2 [DF] | FGF EFE | %4
[M:5/8] D-D- D3 |[M:1/8] [DF] |[M:3/4] [DF][EG] [DF][DB] [Fd][FB] | %7
 [GB][FA] [EG] [DF]2 [DF]/[DF]/ | =E>D C B2 E | c6 | [Fd]4 z2 | [DF]6 | %12
 [EGB]>[EFA] [B,EG] [EGB]2 [B,EG] | [B,DF]4- [B,DF][B,DF]/[B,DF]/ | %14
 [B,DB][B,DB] [B,DB] [D_AB]2 [DAB] |[M:7/8] [EGB][B,GB][Gc] [^Fd]3 [=Fe]/[Fe]/ | %16
[M:3/4] d>c B A2 A |[M:5/8] [DB]-[DB]- [DB]3 |] %18
V:2
 z3 z2 [B,,B,] | [B,,B,][B,,B,][B,,B,] [B,,B,][B,,B,][D,B,] | [E,E][E,E][E,B,] [B,,B,]2 [B,,B,] | %3
 [F,B,D][F,A,E][F,B,D] [F,C][F,D][F,C] |[M:5/8] [B,,F,B,]-[B,,F,B,]- [B,,F,B,]3 |[M:1/8] [B,,B,] | %6
[M:3/4] [B,,B,][B,,B,] [B,,B,][B,,B,] [B,,B,][D,B,] | %7
 [E,B,][E,B,] [E,B,] [B,,B,]2 [B,,B,]/[B,,B,]/ | [C,B,C]>[C,B,C] [C,B,] [C,G,C]2 [C,B,C] | %9
 [F,A,E]6 | [B,,B,]B,, .B,,2 DE | B,,B,, B,, B,,2 D, | E,>E, E, E,2 E, | B,,4- B,,B,,/B,,/ | %14
 G,G, G, F,2 F, |[M:7/8] E,E,[E,G,] [D,A,]3 [C,A,]/[C,A,]/ | %16
[M:3/4] [F,B,F]>[F,EF] [F,DF] [F,CF]2 [F,E] |[M:5/8] [B,,F,]-[B,,F,]- [B,,F,]3 |] %18
V:3
 x6 | x6 | x6 | x6 |[M:5/8] x5 |[M:1/8] x |[M:3/4] x6 | x6 | x6 | x6 | z B, .B,2 BG | %11
 B,B, B, B,2 [B,FB] | x6 | x6 | x6 |[M:7/8] x7 |[M:3/4] x6 |[M:5/8] x5 |] %18
V:4
 x6 | x6 | x6 | x6 |[M:5/8] x5 |[M:1/8] x |[M:3/4] x6 | x6 | x6 | x6 | z2 z .B,3 | x6 | x6 | x6 | %14
 x6 |[M:7/8] x7 |[M:3/4] x6 |[M:5/8] x5 |] %18
V:5
 x6 | x6 | x6 | x6 |[M:5/8] x5 |[M:1/8] x |[M:3/4] x6 | x6 | x6 | x6 | z2 z .B,,3 | x6 | x6 | x6 | %14
 x6 |[M:7/8] x7 |[M:3/4] x6 |[M:5/8] x5 |] %18

